img/slc_icon_connection.svg

<svg xmlns="http://www.w3.org/2000/svg" viewBox="0 0 23.74 23.74" enable-background="new 0 0 23.74 23.74"><g stroke="#ED7070" stroke-width="1.134" stroke-miterlimit="22.926" fill="none"><path d="M4.241 7.246h15.258c.129 0 .234.105.234.233v3.186c0 .128-.105.233-.234.233h-15.258c-.129 0-.234-.105-.234-.233v-3.186c0-.128.105-.233.234-.233zm6.057 12.816c1.019.059 2.068.059 3.145 0v2.59c0 .287-.236.523-.523.523h-2.182c-.241 0-.439-.197-.439-.439v-2.674h-.001zm8.422-9.164v3.044c0 3.375-2.764 6.139-6.139 6.139h-1.522c-3.376 0-6.138-2.764-6.138-6.139v-2.993l13.799-.051zm-12.024-3.687h3.5v-4.895c0-.963-.788-1.75-1.75-1.75s-1.75.788-1.75 1.75v4.895zm6.696 0h3.502v-4.895c0-.963-.789-1.75-1.752-1.75-.961 0-1.75.788-1.75 1.75v4.895zM11.824 13.386c.901 0 1.634.73 1.634 1.633s-.732 1.635-1.634 1.635c-.902 0-1.634-.732-1.634-1.635s.732-1.633 1.634-1.633z"/></g></svg>

<?xml version="1.0" encoding="utf-8"?>
<!-- width="23.74px" height="23.74px"  -->
<!DOCTYPE svg PUBLIC "-//W3C//DTD SVG 1.1//EN" "http://www.w3.org/Graphics/SVG/1.1/DTD/svg11.dtd">
<svg version="1.1" id="Layer_1" xmlns="http://www.w3.org/2000/svg" xmlns:xlink="http://www.w3.org/1999/xlink" x="0px" y="0px"
	  viewBox="0 0 23.74 23.74" enable-background="new 0 0 23.74 23.74" xml:space="preserve">
<g>
	<path fill="none" stroke="#ED7070" stroke-width="1.1338" stroke-miterlimit="22.9256" d="M4.241,7.246h15.258
		c0.129,0,0.234,0.105,0.234,0.233v3.186c0,0.128-0.105,0.233-0.234,0.233H4.241c-0.129,0-0.234-0.105-0.234-0.233V7.479
		C4.007,7.351,4.112,7.246,4.241,7.246L4.241,7.246z M10.298,20.062c1.019,0.059,2.068,0.059,3.145,0v2.59
		c0,0.287-0.236,0.523-0.523,0.523h-2.182c-0.241,0-0.439-0.197-0.439-0.439V20.062L10.298,20.062z M18.72,10.898v3.044
		c0,3.375-2.764,6.139-6.139,6.139h-1.522c-3.376,0-6.138-2.764-6.138-6.139v-2.993L18.72,10.898L18.72,10.898z M6.696,7.211h3.5
		V2.316c0-0.963-0.788-1.75-1.75-1.75h0c-0.962,0-1.75,0.788-1.75,1.75V7.211L6.696,7.211z M13.392,7.211h3.502V2.316
		c0-0.963-0.789-1.75-1.752-1.75l0,0c-0.961,0-1.75,0.788-1.75,1.75V7.211L13.392,7.211z"/>
	<path fill="none" stroke="#ED7070" stroke-width="1.134" stroke-miterlimit="22.9256" d="M11.824,13.386
		c0.901,0,1.634,0.73,1.634,1.633s-0.732,1.635-1.634,1.635c-0.902,0-1.634-0.732-1.634-1.635S10.922,13.386,11.824,13.386
		L11.824,13.386z"/>
</g>
</svg>
